src/assets/svg/arrow.svg

<svg width="15" height="15" fill="none" xmlns="http://www.w3.org/2000/svg">
  <rect rx="0" width="14" height="14" transform="translate(.5 .5)" fill="none"/>
  <path d="m12.51 5.95-4.68 4.69c-.05.04-.1.08-.16.1-.05.02-.11.04-.17.04-.07 0-.13-.02-.18-.04-.06-.02-.11-.06-.16-.1L2.48 5.95a.47.47 0 0 1-.14-.33c0-.12.05-.24.14-.33.08-.09.2-.14.33-.14.12 0 .24.05.33.14L7.5 9.64l4.35-4.35c.04-.05.1-.08.15-.1.06-.03.12-.04.18-.04s.13.01.18.04c.06.02.11.05.15.1.05.04.08.09.11.15a.566.566 0 0 1 0 .36c-.03.06-.06.11-.11.15Z" fill="#FCFCFC"/>
</svg>

<svg width="15.000000" height="15.000000" viewBox="0 0 15 15" fill="none" xmlns="http://www.w3.org/2000/svg" xmlns:xlink="http://www.w3.org/1999/xlink">
	<desc>
			Created with Pixso.
	</desc>
	<defs/>
	<rect id="CaretDown" rx="0.000000" width="14.000000" height="14.000000" transform="translate(0.500000 0.500000)" fill="#FFFFFF" fill-opacity="0"/>
	<path id="Vector" d="M12.51 5.95L7.83 10.64C7.78 10.68 7.73 10.72 7.67 10.74C7.62 10.76 7.56 10.78 7.5 10.78C7.43 10.78 7.37 10.76 7.32 10.74C7.26 10.72 7.21 10.68 7.16 10.64L2.48 5.95C2.39 5.86 2.34 5.74 2.34 5.62C2.34 5.5 2.39 5.38 2.48 5.29C2.56 5.2 2.68 5.15 2.81 5.15C2.93 5.15 3.05 5.2 3.14 5.29L7.5 9.64L11.85 5.29C11.89 5.24 11.95 5.21 12 5.19C12.06 5.16 12.12 5.15 12.18 5.15C12.24 5.15 12.31 5.16 12.36 5.19C12.42 5.21 12.47 5.24 12.51 5.29C12.56 5.33 12.59 5.38 12.62 5.44C12.64 5.5 12.65 5.56 12.65 5.62C12.65 5.68 12.64 5.74 12.62 5.8C12.59 5.86 12.56 5.91 12.51 5.95Z" fill="#FCFCFC" fill-opacity="1.000000" fill-rule="nonzero"/>
</svg>
